images/tier1/grade-visible.svg

<svg width="18" height="18" xmlns="http://www.w3.org/2000/svg" viewBox="0 0 21 18"><path fill="#565a5c" d="M7 9.813A4.742 4.742 0 0 0 5 13.5a4.742 4.742 0 0 0 2 3.687v.533a.307.307 0 0 1-.06.19.246.246 0 0 1-.19.09.234.234 0 0 1-.17-.07L5 16.33l-1.57 1.59-.01.01a.234.234 0 0 1-.17.07.246.246 0 0 1-.19-.09.307.307 0 0 1-.06-.19V9.57a1.392 1.392 0 0 1-.37-.46 1.628 1.628 0 0 1-1.25-.49 1.71 1.71 0 0 1-.49-1.25A1.678 1.678 0 0 1 .26 5a1.678 1.678 0 0 1 .63-2.37 1.71 1.71 0 0 1 .49-1.25A1.665 1.665 0 0 1 2.63.89 1.678 1.678 0 0 1 5 .26a1.678 1.678 0 0 1 2.37.63 1.665 1.665 0 0 1 1.25.49 1.71 1.71 0 0 1 .49 1.25A1.678 1.678 0 0 1 9.74 5a1.678 1.678 0 0 1-.63 2.37 1.71 1.71 0 0 1-.49 1.25 1.628 1.628 0 0 1-1.25.49 1.392 1.392 0 0 1-.37.46zm.2-4.553A2.273 2.273 0 0 0 7.22 5a2.273 2.273 0 0 0-.02-.26 2.114 2.114 0 0 0-.16-.61 2.164 2.164 0 0 0-1.17-1.17 2.193 2.193 0 0 0-1.74 0 2.164 2.164 0 0 0-1.17 1.17 2.114 2.114 0 0 0-.16.61 2.273 2.273 0 0 0-.02.26 2.273 2.273 0 0 0 .02.26 2.114 2.114 0 0 0 .16.61 2.164 2.164 0 0 0 1.17 1.17 2.193 2.193 0 0 0 1.74 0 2.164 2.164 0 0 0 1.17-1.17 2.114 2.114 0 0 0 .16-.61z"/><path fill="#565a5c" d="M13.74 9C10.02 9 7 11.02 7 13.5s3.02 4.5 6.74 4.5 6.76-2.02 6.76-4.5S17.47 9 13.74 9zm-2.34 6.67C9.97 15.24 9 14.43 9 13.5s.97-1.74 2.4-2.17a3.9 3.9 0 0 0 0 4.34zM14.62 14a1 1 0 1 1 1-1 1 1 0 0 1-1 1zm1.46 1.68a3.93 3.93 0 0 0 0-4.36c1.45.43 2.42 1.25 2.42 2.18s-.97 1.75-2.42 2.18z"/></svg>

<svg width="18" height="18" xmlns="http://www.w3.org/2000/svg" viewBox="0 0 21 18">
<path fill="#565a5c" d="M7,9.813A4.742,4.742,0,0,0,5,13.5a4.742,4.742,0,0,0,2,3.687v.533a.307.307,0,0,1-.06.19.246.246,0,0,1-.19.09.234.234,0,0,1-.17-.07L5,16.33,3.43,17.92l-.01.01a.234.234,0,0,1-.17.07.246.246,0,0,1-.19-.09A.307.307,0,0,1,3,17.72V9.57a1.392,1.392,0,0,1-.37-.46,1.628,1.628,0,0,1-1.25-.49A1.71,1.71,0,0,1,.89,7.37,1.678,1.678,0,0,1,.26,5,1.678,1.678,0,0,1,.89,2.63a1.71,1.71,0,0,1,.49-1.25A1.665,1.665,0,0,1,2.63.89,1.678,1.678,0,0,1,5,.26,1.678,1.678,0,0,1,7.37.89a1.665,1.665,0,0,1,1.25.49,1.71,1.71,0,0,1,.49,1.25A1.678,1.678,0,0,1,9.74,5a1.678,1.678,0,0,1-.63,2.37,1.71,1.71,0,0,1-.49,1.25,1.628,1.628,0,0,1-1.25.49A1.392,1.392,0,0,1,7,9.57ZM7.2,5.26A2.273,2.273,0,0,0,7.22,5a2.273,2.273,0,0,0-.02-.26,2.114,2.114,0,0,0-.16-.61A2.164,2.164,0,0,0,5.87,2.96a2.193,2.193,0,0,0-1.74,0A2.164,2.164,0,0,0,2.96,4.13a2.114,2.114,0,0,0-.16.61A2.273,2.273,0,0,0,2.78,5a2.273,2.273,0,0,0,.02.26,2.114,2.114,0,0,0,.16.61A2.164,2.164,0,0,0,4.13,7.04a2.193,2.193,0,0,0,1.74,0A2.164,2.164,0,0,0,7.04,5.87,2.114,2.114,0,0,0,7.2,5.26Z"/>
    <path fill="#565a5c" d="M13.74,9C10.02,9,7,11.02,7,13.5S10.02,18,13.74,18s6.76-2.02,6.76-4.5S17.47,9,13.74,9ZM11.4,15.67C9.97,15.24,9,14.43,9,13.5s.97-1.74,2.4-2.17A3.9,3.9,0,0,0,11.4,15.67ZM14.62,14a1,1,0,1,1,1-1A1,1,0,0,1,14.62,14Zm1.46,1.68a3.93,3.93,0,0,0,0-4.36c1.45.43,2.42,1.25,2.42,2.18S17.53,15.25,16.08,15.68Z"/>
</svg>
